packages/icons/src/svg/tdc-negative.svg

<svg xmlns="http://www.w3.org/2000/svg" viewBox="0 0 16 16">
  <g>
    <path d="M8.8963,14.6367 C8.7773,14.3877 8.5543,14.1977 8.2823,14.1247 C8.2823,14.1247 8.0723,14.0577 7.7943,14.1227 C7.5183,14.1947 7.2913,14.3857 7.1723,14.6397 C4.1643,14.2537 1.7763,11.8627 1.3973,8.8517 C1.7003,8.6927 1.9073,8.3737 1.9073,8.0077 C1.9073,7.6417 1.7013,7.3247 1.3983,7.1637 C1.7813,4.1527 4.1743,1.7617 7.1873,1.3827 C7.3443,1.6947 7.6663,1.9077 8.0383,1.9077 C8.4093,1.9077 8.7303,1.6957 8.8883,1.3857 C11.8813,1.7737 14.2593,4.1477 14.6513,7.1407 C14.3213,7.2897 14.0923,7.6217 14.0923,8.0077 C14.0923,8.3937 14.3223,8.7257 14.6523,8.8747 C14.2643,11.8687 11.8893,14.2457 8.8963,14.6367 M15.2593,7.0777 C14.8403,3.8027 12.2493,1.2067 8.9753,0.7817 C8.8943,0.3367 8.5063,-0.0003 8.0383,-0.0003 C7.5713,-0.0003 7.1843,0.3347 7.1013,0.7787 C3.8193,1.1937 1.2183,3.7887 0.7943,7.0687 C0.3433,7.1437 0.0003,7.5347 0.0003,8.0077 C0.0003,8.4797 0.3433,8.8697 0.7933,8.9477 C1.2143,12.2317 3.8163,14.8307 7.1033,15.2457 C7.1953,15.6757 7.5773,15.9977 8.0343,15.9977 C8.4933,15.9977 8.8753,15.6747 8.9673,15.2437 C12.2483,14.8217 14.8443,12.2197 15.2603,8.9367 C15.6843,8.8387 16.0003,8.4607 16.0003,8.0077 C16.0003,7.5537 15.6833,7.1747 15.2593,7.0777"/>
    <path d="M10.9656,11.2481 C10.8406,11.1591 10.6896,11.0451 10.5176,10.9061 C10.4646,10.8641 10.4086,10.8181 10.3496,10.7691 C9.9996,10.4821 9.5206,10.0881 8.9756,9.8801 C8.5776,9.7271 8.1976,9.6961 7.8416,9.7861 L9.4036,5.7091 C10.1816,4.9641 10.9756,5.5031 11.8576,6.2271 C11.9176,6.2771 11.9756,6.3251 12.0296,6.3691 C12.2836,6.5721 12.4946,6.7281 12.6566,6.8331 L10.9656,11.2481 Z M7.1966,9.5391 C6.6226,8.6801 5.4136,8.6271 4.6716,8.5951 C4.5966,8.5921 4.5246,8.5881 4.4566,8.5841 C4.2366,8.5721 4.0476,8.5571 3.8956,8.5391 L5.5866,4.1241 C5.7786,4.1551 6.0386,4.1801 6.3636,4.1971 C6.4266,4.2011 6.4946,4.2041 6.5646,4.2071 L6.5866,4.2081 C7.7266,4.2581 8.6776,4.3871 8.7586,5.4621 L7.1966,9.5391 Z M13.2006,6.3461 C13.0496,6.2541 12.7986,6.1001 12.4626,5.8301 C12.4146,5.7911 12.3636,5.7501 12.3116,5.7061 L12.2956,5.6931 C11.6636,5.1741 10.5036,4.2201 9.3486,4.8881 C8.9346,3.6191 7.4346,3.5541 6.6166,3.5181 L6.5746,3.5161 C6.5146,3.5141 6.4566,3.5111 6.4026,3.5081 C5.9716,3.4831 5.6816,3.4311 5.5086,3.3981 C5.3896,3.3771 5.3406,3.3681 5.2996,3.3771 C5.1856,3.4011 5.0926,3.4811 5.0516,3.5911 L3.1066,8.6671 C3.0566,8.7971 3.0896,8.9421 3.1886,9.0391 C3.2576,9.1051 3.3726,9.2161 4.4186,9.2741 C4.4826,9.2781 4.6426,9.2851 4.6426,9.2851 C5.4136,9.3181 6.4646,9.3641 6.7416,10.1691 C6.7416,10.1691 6.8256,10.4101 6.8266,10.4081 C6.8256,10.4091 7.5216,10.6691 7.5216,10.6691 L7.7826,10.5461 C8.5386,10.1731 9.3216,10.8191 9.9136,11.3061 C9.9736,11.3551 10.0306,11.4021 10.0846,11.4451 C10.5166,11.7921 10.8136,11.9931 10.9916,12.0611 C11.0586,12.0881 11.1516,12.0931 11.1576,12.0921 C11.2956,12.0871 11.4176,12.0001 11.4666,11.8701 L13.4116,6.7941 C13.4536,6.6851 13.4386,6.5631 13.3706,6.4691 C13.3456,6.4351 13.3036,6.4081 13.2006,6.3461 L13.2006,6.3461 Z"/>
    <path d="M10.97,12.3623 C10.953,12.3603 10.926,12.3563 10.917,12.3533 C10.836,12.3223 10.624,12.2063 10.103,11.7843 C10.051,11.7413 9.995,11.6943 9.936,11.6453 C9.879,11.5973 9.82,11.5463 9.759,11.4943 C9.221,11.0293 8.421,10.3393 7.462,10.9513 L6.657,10.6493 C6.455,9.5963 5.341,9.5503 4.658,9.5233 C4.597,9.5213 4.538,9.5183 4.479,9.5153 C4.479,9.5153 4.322,9.5083 4.26,9.5043 C3.416,9.4523 3.263,9.3703 3.252,9.3633 L3.244,9.3553 C3.112,9.2263 2.901,9.2293 2.771,9.3613 C2.642,9.4943 2.645,9.7063 2.777,9.8353 C2.931,9.9843 3.135,10.1043 4.219,10.1723 C4.283,10.1753 4.447,10.1833 4.447,10.1833 C4.506,10.1863 4.568,10.1893 4.631,10.1913 C5.578,10.2303 5.981,10.3393 6.017,10.9133 L6.031,11.1293 L7.568,11.7063 L7.716,11.5913 C8.271,11.1593 8.693,11.4573 9.322,12.0003 C9.386,12.0553 9.448,12.1093 9.508,12.1593 C9.569,12.2103 9.627,12.2583 9.681,12.3023 C10.152,12.6843 10.457,12.8923 10.673,12.9763 C10.791,13.0223 10.921,13.0303 10.966,13.0303 L10.976,13.0303 C11.16,13.0223 11.303,12.8663 11.295,12.6813 C11.288,12.5053 11.144,12.3663 10.97,12.3623"/>
  </g>
</svg>

<svg xmlns="http://www.w3.org/2000/svg" viewBox="0 0 16 16">
	<path d="M8.896 14.637a.957.957 0 0 0-.614-.512s-.21-.067-.488-.002a.952.952 0 0 0-.622.517 6.695 6.695 0 0 1-5.775-5.788.953.953 0 0 0 .001-1.688 6.694 6.694 0 0 1 5.79-5.781.952.952 0 0 0 1.7.003 6.697 6.697 0 0 1 5.763 5.755.95.95 0 0 0 .001 1.734 6.695 6.695 0 0 1-5.756 5.762m6.363-7.56A7.295 7.295 0 0 0 8.975.783.953.953 0 0 0 7.101.779a7.294 7.294 0 0 0-6.307 6.29.95.95 0 0 0-.794.939c0 .472.343.862.793.94a7.294 7.294 0 0 0 6.31 6.298.952.952 0 0 0 1.864-.002 7.294 7.294 0 0 0 6.293-6.307.954.954 0 0 0 0-1.86"/>
	<path d="M10.966 11.248a9.36 9.36 0 0 1-.616-.479c-.35-.287-.83-.68-1.374-.889-.398-.153-.778-.184-1.134-.094L9.404 5.71c.778-.745 1.572-.206 2.454.518l.172.142c.254.203.465.36.627.464l-1.691 4.415zM7.196 9.54c-.573-.859-1.782-.912-2.524-.944a11.383 11.383 0 0 1-.215-.01 9.175 9.175 0 0 1-.561-.046l1.69-4.415c.193.031.453.056.778.073l.2.01.023.001c1.14.05 2.09.18 2.172 1.254L7.197 9.54zm6.005-3.193a6.485 6.485 0 0 1-.738-.516c-.048-.039-.1-.08-.151-.124l-.016-.013c-.632-.519-1.792-1.473-2.947-.805-.414-1.269-1.914-1.334-2.732-1.37l-.042-.002a6.555 6.555 0 0 1-1.066-.118c-.12-.02-.168-.03-.21-.02a.338.338 0 0 0-.247.213L3.107 8.667a.346.346 0 0 0 .082.372c.069.066.184.177 1.23.235l.224.011c.77.033 1.822.08 2.099.884 0 0 .084.241.085.24l.695.26.26-.123c.757-.373 1.54.273 2.132.76l.17.14c.433.346.73.547.908.615.067.027.16.032.166.031a.343.343 0 0 0 .309-.222l1.945-5.076a.343.343 0 0 0-.041-.325c-.025-.034-.067-.06-.17-.123z"/>
	<path d="M10.97 12.362a.41.41 0 0 1-.053-.009c-.081-.03-.293-.147-.814-.569l-.167-.139-.177-.15c-.538-.466-1.338-1.156-2.297-.544l-.805-.302C6.455 9.596 5.341 9.55 4.658 9.523a9.833 9.833 0 0 1-.179-.008l-.219-.01c-.844-.053-.997-.135-1.008-.142l-.008-.008a.335.335 0 1 0-.467.48c.154.15.358.27 1.442.337a189.445 189.445 0 0 1 .412.02c.947.038 1.35.147 1.386.721l.014.216 1.537.577.148-.115c.555-.432.977-.134 1.606.41l.186.158c.061.051.119.1.173.143.471.382.776.59.992.674a.893.893 0 0 0 .293.054h.01a.334.334 0 0 0-.006-.668"/>
</svg>
